src/lib/packages/icons/src/assets/filled/link-alt.svg

<svg width="24" height="24" viewBox="0 0 24 24" fill="none" xmlns="http://www.w3.org/2000/svg">
<path d="M10.8799 14.12C10.6239 14.12 10.3682 14.022 10.1732 13.827C8.43116 12.084 8.22211 9.38399 9.67511 7.40799C9.77911 7.24399 9.95318 7.034 10.1722 6.814L13.532 3.453C14.47 2.516 15.7151 2 17.0391 2C18.3621 2 19.607 2.516 20.545 3.453C22.479 5.387 22.479 8.53401 20.545 10.467L18.7051 12.307C18.3141 12.698 17.6821 12.698 17.2911 12.307C16.9001 11.917 16.9001 11.284 17.2911 10.893L19.1312 9.05301C20.2842 7.89901 20.2842 6.021 19.1312 4.867C18.0122 3.749 16.0661 3.749 14.9461 4.867L11.587 8.22699C11.47 8.34399 11.3802 8.45201 11.3192 8.54501C10.4222 9.76801 10.548 11.375 11.587 12.413C11.978 12.804 11.978 13.437 11.587 13.827C11.392 14.022 11.1359 14.12 10.8799 14.12ZM10.4681 20.547L13.827 17.187C14.363 16.651 14.768 16.004 14.991 15.338C15.633 13.55 15.176 11.523 13.827 10.173C13.436 9.782 12.8041 9.782 12.4131 10.172C12.0221 10.562 12.0221 11.196 12.4131 11.586C13.2291 12.404 13.4961 13.582 13.1011 14.682C12.9691 15.077 12.7311 15.453 12.4131 15.772L9.05402 19.132C7.93502 20.251 5.98896 20.25 4.86896 19.132C3.71596 17.978 3.71596 16.1 4.86896 14.946L6.70904 13.106C7.10004 12.715 7.10004 12.082 6.70904 11.692C6.31805 11.301 5.68598 11.301 5.29498 11.692L3.45514 13.532C1.52114 15.466 1.52114 18.612 3.45514 20.546C4.39314 21.483 5.638 21.999 6.961 21.999C8.285 22 9.53008 21.484 10.4681 20.547Z" fill="currentColor"/>
</svg>

<svg xmlns="http://www.w3.org/2000/svg" width="24" height="24" fill="none"><path fill="currentColor" d="M10.88 14.12a.997.997 0 0 1-.707-.293 4.914 4.914 0 0 1-.498-6.419c.104-.164.278-.374.497-.594l3.36-3.361A4.93 4.93 0 0 1 17.039 2a4.93 4.93 0 0 1 3.506 1.453 4.965 4.965 0 0 1 0 7.014l-1.84 1.84a.999.999 0 1 1-1.414-1.414l1.84-1.84a2.965 2.965 0 0 0 0-4.186c-1.119-1.118-3.065-1.118-4.185 0l-3.359 3.36a2.09 2.09 0 0 0-.268.318c-.897 1.223-.771 2.83.268 3.868a.999.999 0 0 1-.707 1.707Zm-.412 6.427 3.359-3.36a4.823 4.823 0 0 0 1.164-1.849 4.966 4.966 0 0 0-1.164-5.165 1 1 0 1 0-1.414 1.413 2.93 2.93 0 0 1 .688 3.096c-.132.395-.37.771-.688 1.09l-3.359 3.36c-1.119 1.119-3.065 1.118-4.185 0a2.965 2.965 0 0 1 0-4.186l1.84-1.84a.999.999 0 1 0-1.414-1.414l-1.84 1.84a4.965 4.965 0 0 0 0 7.014 4.929 4.929 0 0 0 3.506 1.453 4.925 4.925 0 0 0 3.507-1.452Z"/></svg>
